X:1
T: The Rambler from Clare
C:
R:Jig
Q:180
K:Am
M:6/8
L:1/16
AB|:c2A2B2 G2B2E2|D2E2G2 G2A2B2|c2B2A2 G2E2D2|E2A2A2 A4B2|
c2A2B2 G2A2E2|D2E2G2 G2A2B2|c2d2e2 f2e2d2|1c2A2A2 A4AB:|2c2A2A2 A4B2|
|:c3de^f g2e2f2|g2e2a2 g2e2d2|e2^f2^g2 a2c'2a2|g2e2^f2 g2e2d2|
c3de^f g2e2^g2|a2b2a2 g2e2d2|c2d2e2 f2e2d2|1c2A2A2 A4B2:|2c2A2A2 A4||
